X:14
T:All Hands High Hornpipe. WM.014
M:4/4
L:1/8
Q:1/2=90
S:Wm.Mittell’s MS, New Romney,Kent,1799
R:.Hornpipe
O:England
A:Kent
Z:vmp.Chris Partington
K:C Dor
BdBG AcA^F|G2G2G3A|BGBd AFAc|B2[B2b2][B3b3]B|!
BdBG A2F2|EGECD2F2|GEFG AFGA|[D2B2][D2B2][D4B4]:|!
|:Bdfb fdBd|A2c2c4|GBAc BdBG|A2F2-F2ED|!
EGcB FAdc|GBed c2BA|GBAc dBcA|F2[D2A2][D4B4]:|

